X:13
T:Le Chibeurli
C:Trad.
O:France
A:Morvan
Z:Transcrit et/ou corrig? par Michel BELLON - 2007-09-08
Z:Pour toute observation mailto:galouvielle@free.fr
M:2/4
L:1/8
K:C
e/f/ |: g3 e/f/ | g3g | ag fe | f2 dd/e/ | f3d/e/ | f3f | gf ed |1 e2 ce/f/ :|2
c3 e/f/ |: gg gg | a/g/f/e/ dd/e/ |1 ff ff | g/f/e/d/ ce/f/ :|2 ff ed | g/f/e/d/ c2 |]
<end>
<start>
